X: 37
T: Silver Cluster Cacti
M:2/4
L:1/8
S: Viola "Mom" Ruth - Pioneer Western Folk Tunes (1948)
Z:AK/Fiddler's Companion
K:Bb
(3F/G/A/ | B>d c/B/c/d/ | B/d/f/b/ gf | b/a/g/f/ g/f/d/B/ | c/d/c/B/ GF |
B>d c/B/c/d/ | B/d/f/b/ gf | b/a/g/f/ g/f/d/B/ | c/B/G/A/ B3 || f |
g>a b(a/g/) | f/b/d/f/ B/d/F | c/=B/c/d/ eA | B/A/B/c/ df |
g>a b(a/g/) |f/b/d/f/ B/d/F | c/=B/c/d/ eA | B/A/B/c/ B3 ||

%%sep 1 1 500
